X: 4
T: The Old Maids Of Galway
R: reel
M: 4/4
L: 1/8
K: Emin
f|eB~B2 eBdB|A2GA Bddg|eB~B2 eBdB|ABGA BGG2|eB~B2 eBdB|A2GA BGGF|G2Bd egdB|ABGA BGG||z|gbag egdg|bgag ea~a2|gbag egdB|ABGA BGG2|gbag egdg|bgag ea~a2|g2fg egdB|ABGA BGG||


Tune 976	Setting 14176

